!!!OTL: 2008. Die zehn Gebote.
!!!ODT: 1860
!!!ARE: Europa, Mitteleuropa, Deutschland
!!!SCT: E2008
!!!TXL: @@DE
!!!YEM: Copyright 1995, estate of Helmut Schaffrath.
**kern	**text
*ICvox	*
*M4/4	*
*met(c)	*
*k[f#]	*
*G:	*
!LO:TX:a:t=Aus dem Magdeburgiſchen um 1860.	!
{4d	Wie
=1	=1
4g	heißt
4g	denn
4f#	nun
4a	das
=2	=2
4e	er-
8e	-ſte
8e	Ge-
4d}	-bot,
{4d	das
=3	=3
4e	ſollſt
4e	du
4g	ſa-
4d	-gen
=4	=4
2g	mir!
4r}	.
{4d	Du
=5	=5
4g	ſollſt
4g	keine
4f#	an-
4a	-dre
=6	=6
4e	Göt-
8e	-ter
8e	ha-
4d}	-ben!
{4d	den
=7	=7
4e	Rath
4e	den
4g	geb
4d	ich
=8	=8
2g	dir.
4r}	.
{8gL	Wir
8bJ	.
=9	=9
2dd	ſol-
4b	-len
4dd	Gott
=10	=10
2cc	lie-
4a	-ben,
4cc}	ja
=11	=11
{2b/	lie-
4g	-ben
4b/	den
=12	=12
4.a	Her-
8g	-ren,
4f#	un-
4e	-ſern
=13	=13
2d}	Gott
{2cc	ſo
=14	=14
8bL	heißt
8aJ	.
4g	das
4a	er-
8f#	-ſte
8f#	Ge-
=15	=15
2g	-bot.
4r}	.
==	==
!!!AGN: geistliches Lied
!!!ONB: ESAC (Essen Associative Code) Database: ERK3
!!!AMT: simple quadruple
!!!AIN: vox
!!!EED: Helmut Schaffrath
!!!EEV: 1.0
!!!GTL: Geistliche Lieder. 2. Gottesglaube und Gottesverehrung in Liedern: Bitt-, Lob-, Dank- und Trostlieder, nebst einigen Lehrgesaengen. 
!!!URL-scan: https://rosdok.uni-rostock.de/mcrviewer/recordIdentifier/rosdok_ppn745177999/iview2/phys_0716.iview2?x=187.54249976177812&y=2288.46574184997&scale=0.7014306698522891&rotation=0&layout=singlePageLayout
!!!ENC: Anna Maria Matuszewska
!!!EEV: 2025/10/01
*-	*-
